X:902
T:O'er the hills and far away
R:March
B:Kerr's First p26
B:Kerr's Third p47
S:Kerr's First p26, mostly...
Z:Transcription, slight arr., chords:Mike Long
M:C|
L:1/8
K:D
(fe)|\
"D"d3e defe|"G"d2B2 B2(AB)|"D"d3e defd|"A"g2e2 e2A2|\
"D"d3e defe|"G"d2B2 g3B|"D"A2(AB) ABde|"A"f2e2 e2:|
|:(fg)|\
"D"a2(ag) fgfe|"G"d2B2 B2(fg)|"D"a2(af) gfed|"A"f2e2 e2(fg)|\
"D/Bm"abag fgfe|"G"d2B2 g3B|"D"A2(AB) ABde|"A"f2e2 e2:|
